X: 3
T: Scarborough Fair
R: waltz
M: 3/4
L: 1/8
K: Emin
|: E3 ^D E2 | B ^A2 B2 | F2 G2 F2 | E6 | B4 d2 | e4 d2 | B2 ^c2 ^A2 | B6 |e3 ^d e2 | d4 D2 | B2 (3^AB=A G2 | F2 d4 | E4 B2 | A4 G2 | F2 E2 ^D2 | E6 :|


Tune 7522	Setting 7522

